img/04.svg

<svg width="160" height="80" viewBox="0 0 160 80" fill="none" xmlns="http://www.w3.org/2000/svg">
<path fill-rule="evenodd" clip-rule="evenodd" d="M95.4818 43.7039C97.1514 41.6314 98.7671 39.6281 100.38 37.6225C101.351 36.4147 102.317 35.2027 103.288 33.9945C103.354 33.9125 103.419 33.8398 103.554 33.8408C104.59 33.8486 105.626 33.8451 106.72 33.8451C106.323 34.3449 105.955 34.808 105.587 35.2707C104.089 37.1508 102.592 39.0318 101.089 40.9085C100.997 41.0239 101.009 41.1068 101.069 41.2207C101.673 42.3613 102.273 43.5041 102.876 44.6454C103.591 45.9975 104.308 47.3484 105.022 48.7008C105.783 50.1409 106.537 51.5847 107.307 53.0197C107.447 53.2808 107.385 53.3122 107.123 53.3082C106.244 53.295 105.364 53.299 104.485 53.3055C104.325 53.3067 104.241 53.259 104.164 53.1111C102.54 49.982 100.909 46.8561 99.2792 43.7294C99.2242 43.624 99.1735 43.5161 99.1103 43.3882C98.7049 43.7451 98.3909 44.1768 98.0394 44.5722C97.2091 45.5062 96.3931 46.4532 95.5627 47.3874C95.4658 47.4968 95.4833 47.6052 95.4831 47.7194C95.4808 49.4777 95.4766 51.2362 95.4871 52.9945C95.4883 53.2363 95.4418 53.3172 95.1826 53.31C94.4637 53.2898 93.744 53.295 93.0248 53.3072C92.8243 53.3107 92.7793 53.2505 92.7795 53.0567C92.7843 44.2048 92.7843 35.3528 92.7793 26.5007C92.7793 26.3046 92.8275 26.2494 93.0261 26.2526C93.7452 26.2651 94.4652 26.2706 95.1838 26.2504C95.4448 26.2431 95.4871 26.3278 95.4868 26.5674C95.4798 32.1223 95.4816 37.6774 95.4818 43.2321V43.7039Z" fill="#3C2829"/>
<path fill-rule="evenodd" clip-rule="evenodd" d="M74.8581 36.4968C75.2253 36.1531 75.5323 35.8603 75.8447 35.5738C76.685 34.8039 77.5963 34.1402 78.7014 33.8052C80.4012 33.2894 82.0746 33.3394 83.6853 34.14C84.9342 34.761 85.6764 35.8011 86.068 37.116C86.2281 37.6533 86.3083 38.2004 86.3083 38.7606C86.3081 43.4957 86.3058 48.2308 86.3141 52.9659C86.3146 53.2319 86.2591 53.3211 85.9781 53.3119C85.2894 53.2891 84.5992 53.2886 83.9106 53.3094C83.6515 53.3171 83.6048 53.2402 83.6051 52.9969C83.6126 48.2418 83.6268 43.4865 83.5991 38.7314C83.5926 37.5721 83.1327 36.5854 81.9957 36.0896C81.2708 35.7734 80.4872 35.7217 79.707 35.8488C78.0364 36.1206 76.7105 37.0213 75.4818 38.1347C74.9825 38.587 74.8396 39.0639 74.8433 39.7166C74.8708 44.1417 74.8556 48.5675 74.8631 52.9931C74.8633 53.2317 74.8226 53.3179 74.5611 53.3104C73.8621 53.2894 73.1622 53.2906 72.4633 53.3094C72.2118 53.3161 72.1538 53.2484 72.1543 52.9991C72.1613 44.4879 72.16 35.9764 72.16 27.4652C72.16 27.1453 72.17 26.8253 72.1563 26.5063C72.1481 26.3192 72.1883 26.2482 72.3971 26.2522C73.1262 26.2665 73.8559 26.2675 74.5848 26.2517C74.8114 26.247 74.8636 26.3077 74.8631 26.5318C74.8551 29.7186 74.8578 32.9055 74.8581 36.0924V36.4968Z" fill="#3C2829"/>
<path fill-rule="evenodd" clip-rule="evenodd" d="M61.0205 53.696C58.9055 53.6988 57.17 53.2904 55.5793 52.3244C54.6413 51.7549 53.872 51.0048 53.1913 50.1535C53.0894 50.0261 53.1193 49.9521 53.2442 49.8604C53.8542 49.4131 54.4617 48.9632 55.0597 48.5003C55.2046 48.3882 55.2456 48.4491 55.331 48.56C55.9233 49.3259 56.5917 50.0141 57.4348 50.5059C58.7339 51.2645 60.137 51.4876 61.623 51.322C62.4519 51.2296 63.222 50.999 63.8682 50.4652C64.9001 49.6137 65.292 48.4194 64.7824 47.1929C64.5164 46.5529 64.0066 46.1313 63.4298 45.7666C62.4703 45.1601 61.3758 44.903 60.3286 44.5259C59.0926 44.0807 57.8129 43.7443 56.6077 43.2307C54.9813 42.5383 53.8028 41.302 53.6954 39.261C53.6379 38.1706 53.8033 37.1257 54.3536 36.1688C54.672 35.615 55.0762 35.1329 55.6043 34.7532C56.7893 33.9011 58.1224 33.5377 59.5613 33.4847C61.2504 33.4223 62.8096 33.8479 64.2826 34.665C65.1124 35.1251 65.8198 35.7184 66.4443 36.4218C66.5492 36.54 66.6386 36.6714 66.7398 36.7933C66.8302 36.9017 66.7381 36.9604 66.6761 37.0143C66.1535 37.4694 65.6212 37.9138 65.1062 38.3774C64.9633 38.5063 64.9078 38.5021 64.7699 38.363C64.2521 37.8396 63.7695 37.2811 63.1488 36.8619C61.9395 36.0456 60.6191 35.6682 59.1686 35.83C58.0962 35.95 57.088 36.2637 56.6352 37.3723C56.1683 38.5146 56.271 39.5335 57.2784 40.3488C58.005 40.9373 58.8648 41.2281 59.7291 41.5236C61.123 41.9997 62.5036 42.516 63.9069 42.9629C65.025 43.3191 65.9532 43.9336 66.6661 44.8446C67.4767 45.881 67.76 47.0815 67.675 48.3952C67.6156 49.3112 67.3768 50.1515 66.8849 50.9206C66.3464 51.7626 65.5978 52.3711 64.7262 52.8405C63.6561 53.4168 62.2206 53.7287 61.0205 53.696Z" fill="#3C2829"/>
<path fill-rule="evenodd" clip-rule="evenodd" d="M45.0555 37.721C45.2418 37.4255 45.4137 37.1425 45.5961 36.8662C46.1194 36.0746 46.6974 35.3327 47.4598 34.7492C48.3283 34.0835 49.3202 33.744 50.3913 33.6086C50.6768 33.5727 50.9631 33.5317 51.2544 33.5414C51.3878 33.5457 51.4212 33.5839 51.4202 33.7126C51.415 34.5017 51.4147 35.291 51.4205 36.0806C51.4215 36.2117 51.3808 36.2377 51.2534 36.2482C50.8397 36.2824 50.4266 36.3254 50.0209 36.4268C48.8534 36.7188 47.8981 37.3328 47.1475 38.2753C46.1356 39.5455 45.5204 41.0113 45.0233 42.5368C44.9936 42.6277 45.0035 42.7333 45.0035 42.832C45.0025 46.2192 45.0003 49.6062 45.0083 52.9931C45.0088 53.2307 44.9708 53.3173 44.7065 53.3096C43.9879 53.2884 43.268 53.2973 42.5488 53.3086C42.3542 53.3116 42.3005 53.2579 42.3008 53.059C42.3063 46.7345 42.3063 40.4103 42.301 34.0857C42.301 33.8919 42.3475 33.837 42.5448 33.8402C43.284 33.8527 44.0236 33.8524 44.7627 33.8402C44.9576 33.837 45.009 33.8877 45.0078 34.0835C44.9978 35.1926 45.0018 36.3017 45.005 37.4107C45.0053 37.5032 44.9698 37.6046 45.0555 37.721Z" fill="#3C2829"/>
<path fill-rule="evenodd" clip-rule="evenodd" d="M14.85 47.9683C14.4033 49.0349 13.5785 49.7061 12.5491 50.1408C11.4835 50.5907 10.3562 50.7323 9.20389 50.7558C7.23727 50.7957 5.27089 50.7568 3.30452 50.7815C3.07121 50.7842 3.00602 50.7245 3.00776 50.4867C3.01876 48.8591 3.01351 47.2317 3.01351 45.6038H3.01201C3.01201 43.9664 3.01526 42.3287 3.00801 40.6908C3.00702 40.5023 3.04374 40.4343 3.24882 40.4356C4.96614 40.4436 6.68472 40.4063 8.40105 40.451C9.68199 40.4848 10.9537 40.6436 12.1387 41.2059C13.247 41.7317 14.1523 42.4786 14.7303 43.5757C15.148 44.3686 15.2461 45.2338 15.2309 46.1161C15.2197 46.7566 15.0988 47.3743 14.85 47.9683ZM3.01351 33.3429C3.01326 31.9241 3.01776 30.5053 3.00876 29.0869C3.00727 28.8751 3.04249 28.8019 3.27979 28.8032C5.36756 28.8147 7.45608 28.7862 9.54361 28.8204C10.4336 28.8352 11.3241 28.9441 12.1697 29.282C13.3667 29.7604 14.1043 30.6214 14.3903 31.8734C14.5927 32.7587 14.6349 33.6429 14.3786 34.5279C14.0514 35.6585 13.2835 36.4266 12.3046 36.9969C11.149 37.6696 9.86984 37.8814 8.55043 37.8859C6.80213 37.8922 5.05382 37.8834 3.30552 37.8927C3.07596 37.8937 3.00527 37.841 3.00727 37.5987C3.02025 36.1801 3.01351 34.7613 3.01351 33.3429ZM18.0728 44.5067C17.7288 42.7894 16.8268 41.4242 15.4365 40.3828C14.7573 39.874 14.0077 39.4871 13.1701 39.2967C13.1109 39.2833 13.041 39.2695 13.035 39.2026C13.028 39.1196 13.1144 39.1319 13.1651 39.1109C13.6037 38.9283 14.0446 38.7549 14.4625 38.5229C15.3578 38.026 16.1084 37.3763 16.6512 36.5033C17.3576 35.3673 17.5845 34.113 17.5465 32.7946C17.4688 30.0874 16.1239 28.2059 13.7466 27.0266C12.4714 26.3937 11.0768 26.269 9.679 26.262C6.56182 26.2463 3.4449 26.261 0.327982 26.251C0.0614521 26.2503 -0.000496598 26.3185 2.98849e-06 26.5815C0.00899555 30.9874 0.0062482 35.3932 0.0062482 39.7988H0.00524863V52.866C0.00524863 53.3291 0.00524927 53.3291 0.481106 53.3291C3.21859 53.3291 5.95583 53.3381 8.69306 53.3244C9.69698 53.3196 10.7024 53.2757 11.6931 53.0873C13.0947 52.8213 14.4568 52.4534 15.6463 51.6123C16.6515 50.9016 17.3864 49.9877 17.7898 48.8211C18.2774 47.4103 18.3661 45.9707 18.0728 44.5067Z" fill="#3C2829"/>
<path fill-rule="evenodd" clip-rule="evenodd" d="M121.86 45.5053C121.86 46.3241 121.86 47.1434 121.86 47.9622C121.86 48.0807 121.859 48.1851 121.764 48.2895C120.608 49.5537 119.236 50.4977 117.622 51.0694C116.819 51.3542 115.976 51.5203 115.135 51.287C114.088 50.9965 113.216 50.4127 112.828 49.3538C112.487 48.4199 112.617 47.4874 113.172 46.6448C113.933 45.4898 115.091 44.8638 116.315 44.3375C118.027 43.6021 119.824 43.1657 121.654 42.8505C121.855 42.8158 121.863 42.8932 121.862 43.0481C121.857 43.8669 121.86 44.6862 121.86 45.5053ZM124.966 53.0438C124.655 51.6669 124.558 50.2696 124.558 48.8625C124.558 45.5358 124.561 42.209 124.555 38.882C124.554 37.9897 124.311 37.1484 123.867 36.3818C122.959 34.8106 121.506 34.0103 119.788 33.6626C118.611 33.4243 117.416 33.4148 116.221 33.5984C113.732 33.9808 111.874 35.2722 110.611 37.4392C110.543 37.5556 110.499 37.6153 110.668 37.6982C111.336 38.026 111.998 38.3684 112.653 38.7214C112.842 38.8233 112.907 38.7918 112.995 38.597C113.436 37.6183 114.104 36.827 115.086 36.3691C116.53 35.6951 118.05 35.6232 119.574 36.0181C120.711 36.3129 121.463 37.0418 121.747 38.2268C121.913 38.9205 121.829 39.6162 121.862 40.3108C121.869 40.4532 121.777 40.4347 121.693 40.4512C121.196 40.5461 120.698 40.6378 120.203 40.7415C117.793 41.2463 115.412 41.8506 113.225 43.0273C112.263 43.5449 111.419 44.2251 110.828 45.1651C110.054 46.3953 109.864 47.7442 110.012 49.1725C110.164 50.6343 110.833 51.7926 111.99 52.6659C112.827 53.2976 113.797 53.5996 114.843 53.6685C116.058 53.7485 117.237 53.6181 118.383 53.1784C119.672 52.6833 120.748 51.8917 121.695 50.9038C121.77 50.8246 121.823 50.698 121.967 50.6977C122.057 51.5041 122.145 52.3044 122.238 53.1037C122.249 53.1959 122.198 53.3328 122.387 53.3313C123.255 53.3258 124.122 53.3288 125 53.3288C124.988 53.2184 124.985 53.1292 124.966 53.0438Z" fill="#3C2829"/>
<path fill-rule="evenodd" clip-rule="evenodd" d="M25.255 41.5171C25.3941 40.1495 25.7241 38.8473 26.5329 37.7042C27.2765 36.6536 28.2832 36.0546 29.5614 35.8763C30.3423 35.7673 31.1056 35.7886 31.8625 36.0009C32.5921 36.2055 33.1724 36.6346 33.673 37.1954C34.6337 38.2715 34.9712 39.5739 35.0771 40.965C35.0916 41.1534 35.0898 41.3437 35.1141 41.5306C35.1418 41.7457 35.0564 41.7894 34.8518 41.7881C33.2948 41.7791 31.7376 41.7831 30.1804 41.7831C28.6232 41.7831 27.0662 41.7789 25.509 41.7881C25.2914 41.7896 25.2342 41.7222 25.255 41.5171ZM38.2527 49.0736C37.854 48.8725 37.4561 48.6704 37.0562 48.4718C36.8176 48.3532 36.5409 48.1094 36.346 48.1621C36.1505 48.2148 36.0378 48.5673 35.8857 48.7863C34.4426 50.8606 32.4523 51.6 30.1522 51.326C28.6247 51.1439 27.4764 50.2678 26.5899 49.0411C25.5817 47.6453 25.1953 46.0568 25.1533 44.3602C25.1473 44.1239 25.2217 44.091 25.4331 44.092C27.4412 44.1 29.4495 44.0967 31.4576 44.0967H34.4848C35.5037 44.0967 36.5229 44.0885 37.5418 44.1034C37.7724 44.1064 37.8196 44.042 37.8146 43.8237C37.7993 43.1447 37.8278 42.4643 37.8051 41.7859C37.7501 40.156 37.5078 38.5623 36.7237 37.1027C35.9708 35.7009 34.8882 34.6373 33.401 34.031C32.2107 33.5457 30.9647 33.412 29.6868 33.5087C27.989 33.6374 26.5032 34.2506 25.2832 35.4454C24.1669 36.5387 23.4247 37.8641 23.0016 39.3641C22.6739 40.5254 22.509 41.7109 22.4795 42.9207C22.448 44.2076 22.4915 45.4823 22.765 46.7453C23.136 48.4571 23.8239 50.0041 25.0546 51.281C25.9227 52.181 26.9271 52.8692 28.1173 53.2699C29.6441 53.7834 31.2038 53.7949 32.7745 53.5424C33.9693 53.3498 35.0846 52.9324 36.0261 52.161C36.99 51.3717 37.7359 50.389 38.3556 49.3091C38.4451 49.154 38.3514 49.1233 38.2527 49.0736Z" fill="#3C2829"/>
</svg>

<svg xmlns="http://www.w3.org/2000/svg" width="160" height="80" fill="#3c2829"  fill-rule="evenodd" xmlns:v="https://vecta.io/nano"><path d="M95.482 43.704l4.898-6.081 2.908-3.628c.066-.082.131-.155.266-.154l3.166.004-1.133 1.426-4.498 5.638c-.092.115-.08.198-.02.312l3.953 7.48 2.285 4.319c.14.261.078.292-.184.288l-2.638-.003c-.16.001-.244-.047-.321-.194l-4.885-9.382-.169-.341c-.405.357-.719.789-1.071 1.184l-2.477 2.815c-.097.109-.079.218-.08.332l.004 5.275c.001.242-.045.323-.305.316l-2.158-.003c-.201.003-.245-.057-.245-.251V26.501c0-.196.048-.251.247-.248l2.158-.002c.261-.007.303.077.303.317l-.005 17.136zm-20.624-7.207l.987-.923c.84-.77 1.752-1.434 2.857-1.769 1.7-.516 3.373-.466 4.984.335 1.249.621 1.991 1.661 2.383 2.976.16.537.24 1.084.24 1.645l.006 14.205c.001.266-.055.355-.336.346a32.69 32.69 0 0 0-2.067-.003c-.259.008-.306-.069-.306-.312L83.6 38.732c-.007-1.159-.466-2.146-1.603-2.642-.725-.316-1.508-.368-2.289-.241-1.671.272-2.996 1.172-4.225 2.286-.499.452-.642.929-.639 1.582l.02 13.276c0 .239-.041.325-.302.317l-2.098-.001c-.252.007-.309-.061-.309-.31l.002-26.493c-.008-.187.032-.258.241-.254h2.188c.227-.005.279.056.278.28l-.005 9.965zM61.021 53.696c-2.115.003-3.85-.406-5.441-1.372-.938-.569-1.707-1.32-2.388-2.171-.102-.127-.072-.201.053-.293l1.816-1.36c.145-.112.186-.051.271.06.592.766 1.261 1.454 2.104 1.946 1.299.759 2.702.982 4.188.816.829-.092 1.599-.323 2.245-.857 1.032-.852 1.424-2.046.914-3.272-.266-.64-.776-1.062-1.353-1.426-.959-.606-2.054-.864-3.101-1.241l-3.721-1.295c-1.626-.692-2.805-1.929-2.912-3.97-.057-1.09.108-2.135.658-3.092.318-.554.723-1.036 1.251-1.416 1.185-.852 2.518-1.215 3.957-1.269 1.689-.062 3.248.363 4.721 1.18.83.46 1.537 1.053 2.162 1.757.105.118.194.25.296.372.09.108-.002.167-.064.221l-1.57 1.363c-.143.129-.198.125-.336-.014-.518-.523-1-1.082-1.621-1.501-1.209-.816-2.53-1.194-3.98-1.032-1.072.12-2.081.434-2.533 1.542-.467 1.142-.364 2.161.643 2.976.727.589 1.586.879 2.451 1.175l4.178 1.439c1.118.356 2.046.971 2.759 1.882.811 1.036 1.094 2.237 1.009 3.551-.059.916-.298 1.756-.79 2.525-.538.842-1.287 1.45-2.159 1.92-1.07.576-2.506.888-3.706.855zM45.056 37.721l.541-.855c.523-.792 1.101-1.533 1.864-2.117.868-.666 1.86-1.005 2.932-1.141.285-.036.572-.077.863-.067.133.004.167.042.166.171v2.368c.001.131-.04.157-.167.168-.414.034-.827.077-1.233.179a5.18 5.18 0 0 0-2.873 1.849c-1.012 1.27-1.627 2.736-2.124 4.261-.03.091-.02.197-.02.295l.005 10.161c.001.238-.038.324-.302.317l-2.158-.001c-.195.003-.248-.051-.248-.25V34.086c0-.194.046-.249.244-.245a66.39 66.39 0 0 0 2.218 0c.195-.003.246.047.245.243l-.003 3.327c0 .093-.035.194.05.31zM14.85 47.968c-.447 1.067-1.271 1.738-2.301 2.172-1.066.45-2.193.592-3.345.615l-5.899.026c-.233.003-.299-.057-.297-.295l.006-4.883-.006-4.913c-.001-.189.036-.257.241-.255l5.152.015c1.281.034 2.553.193 3.738.755 1.108.526 2.014 1.273 2.592 2.37.418.793.516 1.658.501 2.54a4.97 4.97 0 0 1-.381 1.852zM3.014 33.343l-.005-4.256c-.001-.212.034-.285.271-.284l6.264.017c.89.015 1.78.124 2.626.462 1.197.478 1.935 1.339 2.221 2.591.202.885.245 1.769-.012 2.655-.327 1.131-1.095 1.899-2.074 2.469-1.156.673-2.435.885-3.754.889-1.748.006-3.497-.002-5.245.007-.23.001-.3-.052-.298-.294l.006-4.256zm15.059 11.164c-.344-1.717-1.246-3.083-2.636-4.124-.679-.509-1.429-.896-2.266-1.086-.059-.013-.129-.027-.135-.094-.007-.083.079-.071.13-.092l1.297-.588c.895-.497 1.646-1.147 2.189-2.02.706-1.136.933-2.39.895-3.709-.078-2.707-1.423-4.589-3.8-5.768-1.275-.633-2.67-.758-4.068-.765L.328 26.25c-.267-.001-.328.067-.328.33l.006 13.217-.001 13.067c0 .463 0 .463.476.463l8.212-.005c1.004-.005 2.009-.049 3-.237 1.402-.266 2.764-.634 3.953-1.475 1.005-.711 1.74-1.625 2.143-2.791.488-1.411.576-2.85.283-4.314zm103.787.998v2.457c0 .118-.001.223-.096.327-1.156 1.264-2.528 2.208-4.142 2.78-.803.285-1.646.451-2.487.218-1.047-.291-1.919-.874-2.307-1.933-.341-.934-.211-1.866.344-2.709.761-1.155 1.919-1.781 3.143-2.307 1.712-.735 3.509-1.172 5.339-1.487.201-.035.209.043.208.198l-.002 2.457zm3.106 7.538c-.311-1.377-.408-2.774-.408-4.181l-.003-9.98c-.001-.892-.244-1.734-.688-2.5-.908-1.571-2.361-2.371-4.079-2.719-1.177-.238-2.372-.248-3.567-.064-2.489.382-4.347 1.674-5.61 3.841-.068.116-.112.176.057.259l1.985 1.023c.189.102.254.07.342-.124.441-.979 1.109-1.77 2.091-2.228 1.444-.674 2.964-.746 4.488-.351 1.137.295 1.889 1.024 2.173 2.209.166.694.082 1.389.115 2.084.007.142-.085.124-.169.14l-1.49.29c-2.41.505-4.791 1.109-6.978 2.286-.962.518-1.806 1.198-2.397 2.138-.774 1.23-.964 2.579-.816 4.007.152 1.462.821 2.62 1.978 3.493.837.632 1.807.934 2.853 1.003 1.215.08 2.394-.05 3.54-.49 1.289-.495 2.365-1.287 3.312-2.275.075-.079.128-.206.272-.206l.271 2.406c.011.092-.04.229.149.228L125 53.33l-.034-.285zM25.255 41.517c.139-1.368.469-2.67 1.278-3.813.744-1.051 1.75-1.65 3.028-1.828.781-.109 1.544-.088 2.301.125.73.205 1.31.634 1.811 1.194.961 1.076 1.298 2.379 1.404 3.77l.037.566c.028.215-.058.259-.262.258l-4.671-.005c-1.557 0-3.114-.004-4.671.005-.218.002-.275-.066-.254-.271zm12.998 7.557l-1.197-.602c-.239-.119-.515-.362-.71-.31s-.308.405-.46.624c-1.443 2.074-3.433 2.814-5.733 2.54-1.527-.182-2.676-1.058-3.562-2.285-1.008-1.396-1.395-2.984-1.437-4.681-.006-.236.068-.269.28-.268l12.109.011c.231.003.278-.061.273-.28l-.009-2.038c-.055-1.63-.297-3.224-1.081-4.683-.753-1.402-1.836-2.465-3.323-3.072-1.19-.485-2.436-.619-3.714-.522-1.698.129-3.184.742-4.404 1.937-1.116 1.093-1.858 2.419-2.282 3.919-.328 1.161-.493 2.347-.522 3.557-.032 1.287.012 2.562.285 3.825.371 1.712 1.059 3.259 2.29 4.536.868.9 1.872 1.588 3.063 1.989 1.527.514 3.087.525 4.657.273 1.195-.193 2.31-.61 3.252-1.381.964-.789 1.71-1.772 2.33-2.852.089-.155-.004-.186-.103-.236z"/></svg>
